X: 1
T:Bush in Bloom, The
R:reel
D:Matt Molloy: Heathery Breeze
Z:id:hn-reel-149
M:C|
K:G
d2BG AGEF|G2Bd efge|d2BG AGEF|1 GBAF ~G3B:|2 GBAF ~G3g||
~g2dg egde|g2bg agef|g2dg egdb|agef ~g3a|
bg~g2 agef|feed edBd|eg~g2 ea~a2|agef ~g3e||
